docs/public/images/landing/tool-devtools.svg

<svg width="24" height="24" viewBox="0 0 24 24" fill="none" xmlns="http://www.w3.org/2000/svg">
<rect x="0.5" y="0.5" width="23" height="23" rx="3.5" fill="url(#paint0_linear_299_43935)" fill-opacity="0.2"/>
<rect x="0.5" y="0.5" width="23" height="23" rx="3.5" stroke="url(#paint1_linear_299_43935)"/>
<g clip-path="url(#clip0_299_43935)">
<path d="M12.9151 16.653H18.4913C18.6684 16.653 18.8424 16.6078 18.9957 16.5219C19.1481 16.437 19.2755 16.3134 19.365 16.1636C19.4533 16.0157 19.4999 15.8466 19.5 15.6743C19.4998 15.502 19.453 15.3329 19.3646 15.185L15.6197 8.89346C15.5302 8.74376 15.4029 8.62025 15.2506 8.53534C15.0964 8.44921 14.9228 8.40404 14.7462 8.40415C14.5691 8.40415 14.3952 8.4494 14.2418 8.53527C14.0895 8.62021 13.9621 8.74374 13.8726 8.89346L12.9151 10.5033L11.043 7.35546C10.9534 7.20576 10.826 7.08225 10.6736 6.99734C10.5194 6.91124 10.3458 6.8661 10.1692 6.86621C9.99206 6.86621 9.81813 6.9114 9.66469 6.99727C9.51228 7.08219 9.3849 7.20569 9.29531 7.3554L4.6355 15.1851C4.54707 15.333 4.50025 15.502 4.5 15.6743C4.49994 15.8461 4.5465 16.0149 4.635 16.1636C4.7245 16.3134 4.85185 16.437 5.00425 16.5219C5.15763 16.6078 5.33163 16.653 5.50875 16.653H9.00894C10.3958 16.653 11.4186 16.0621 12.1222 14.9093L13.8308 12.0392L14.7459 10.5033L17.4924 15.1171H13.8308L12.9151 16.653ZM8.95188 15.1155L6.50919 15.1149L10.1708 8.96359L11.9978 12.0392L10.7746 14.095C10.3072 14.8429 9.77631 15.1155 8.95188 15.1155Z" fill="#00DC82"/>
</g>
<defs>
<linearGradient id="paint0_linear_299_43935" x1="12" y1="0" x2="12" y2="24" gradientUnits="userSpaceOnUse">
<stop stop-color="#00DC82"/>
<stop offset="1" stop-color="#00DC82" stop-opacity="0.1"/>
</linearGradient>
<linearGradient id="paint1_linear_299_43935" x1="12" y1="0" x2="12" y2="24" gradientUnits="userSpaceOnUse">
<stop stop-color="#00DC82"/>
<stop offset="1" stop-color="#00DC82" stop-opacity="0.1"/>
</linearGradient>
<clipPath id="clip0_299_43935">
<rect width="15" height="15" fill="white" transform="translate(4.5 4.25977)"/>
</clipPath>
</defs>
</svg>

<svg xmlns="http://www.w3.org/2000/svg" width="24" height="24" fill="none"><rect width="23" height="23" x=".5" y=".5" fill="url(#a)" fill-opacity=".06" rx="3.5"/><rect width="23" height="23" x=".5" y=".5" stroke="url(#b)" rx="3.5"/><g clip-path="url(#c)"><path fill="#00C16A" d="M12.9151 16.653h5.5762c.1771 0 .3511-.0452.5044-.1311a.9934.9934 0 0 0 .3693-.3583.9556.9556 0 0 0 .135-.4893.956.956 0 0 0-.1354-.4893l-3.7449-6.2915a.994.994 0 0 0-.3691-.3582 1.0329 1.0329 0 0 0-.5044-.1311c-.1771 0-.351.0452-.5044.131a.9945.9945 0 0 0-.3692.3583l-.9575 1.6098-1.8721-3.1478a.9948.9948 0 0 0-.3694-.3582 1.0332 1.0332 0 0 0-.5044-.131c-.1771 0-.351.0451-.5045.131a.9946.9946 0 0 0-.3694.3581l-4.6598 7.8297a.956.956 0 0 0-.1355.4892c0 .1718.0465.3406.135.4893a.9933.9933 0 0 0 .3693.3583 1.033 1.033 0 0 0 .5045.1311h3.5001c1.3869 0 2.4097-.5909 3.1133-1.7437l1.7086-2.8701.9151-1.5359 2.7465 4.6138h-3.6616l-.9157 1.5359Zm-3.9632-1.5375-2.4427-.0006 3.6616-6.1513 1.827 3.0756-1.2232 2.0558c-.4674.7479-.9983 1.0205-1.8227 1.0205Z"/></g><defs><linearGradient id="a" x1="12" x2="12" y1="0" y2="24" gradientUnits="userSpaceOnUse"><stop stop-color="#00DC82"/><stop offset="1" stop-color="#00DC82" stop-opacity=".1"/></linearGradient><linearGradient id="b" x1="12" x2="12" y1="0" y2="24" gradientUnits="userSpaceOnUse"><stop stop-color="#00C16A"/><stop offset="1" stop-color="#00C16A" stop-opacity=".1"/></linearGradient><clipPath id="c"><path fill="#fff" d="M4.5 4.2598h15v15h-15z"/></clipPath></defs></svg>
